X: 305576
M: 6/8
L: 1/8
K: Gm
|: (d/e/) |\
fgf fed | cdc cBA | Ggg g^fg | agg gde |\
fgf fed | cdc cBA | Ggg ded | cAF G2 :|


